X:1
T:Southill, CM
T:Southill, CM
T:Traditional English Melody
T:Public Domain Courtesy of the Cyber Hymnal™
C:Traditional English Melody
Z:Public Domain
Z:Courtesy of the Cyber Hymnal™
%%score ( 1 2 ) ( 3 4 )
L:1/8
Q:1/4=110
M:4/4
K:F
V:1 treble 
V:2 treble 
V:3 bass 
V:4 bass 
V:1
 ([DF][EG]) | [FA]3 [DG] [DF]2 D2 | [CG]2 A2 E2 [DG]2 | [DF]2 (EF) [DG]2 [Ec]2 | [CA]6 [Fd]2 | %5
 [Gc]2 (AG) [DF]2 (ED) | (EF) [DG][CE] [Ec]2 d2 | [Fc]2 [FA][EG] F2 z x3 | D6 |] %9
V:2
 x2 | x6 D2 | x2 (CD) E2 x2 | x2 D2 x4 | x8 | x2 E2 x A,2 x | C2 x3 (DE) x | x4 D3 (E2 ^C) | D6 |] %9
V:3
 [D,A,]2 | [D,A,]3 [G,B,] [D,A,]2 [F,A,]2 | [E,G,]2 F,2 [C,G,]2 [G,,B,]2 | %3
 A,2 G,[C,A,] (B,A,) [C,G,]2 | F,6 [D,A,]2 | [E,C]2 [C,C]2 [D,A,]2 [F,A,]2 | %6
 [C,G,]2 G,2 [A,,A,]2 (F,G,) | [A,,A,]2 ([F,,F,A,][G,B,]) [A,,A,]2 [A,,A,]2 x2 | [D,F,]6 |] %9
V:4
 x2 | x8 | x2 F,2 x4 | D,3 B,,2 x3 | F,6 x2 | x8 | x2 B,,C, x B,,2 x | x10 | x6 |] %9

